X:1
T:James Gibb editions
T:Tant que vivrai - Sermisy
T:#
%%score [ 1 2 3 4 ]
L:1/8
Q:1/4=121
M:4/4
K:F
V:1 treble nm="Soprano" snm="S"
V:2 treble nm="Alto" snm="A"
V:3 treble-8 nm="Tenor" snm="T"
V:4 bass nm="Bass" snm="B"
V:1
"^Claudin de Sermisy\n(1490-1562)""^Clément Marot\n(1496-1544)" c4 c2 B2 | %1
w: Tant que viv-|
w: Quand je la|
"^Tant que vivrai" A6 A2 | G2 c2 c2 =B2 | c8 | A4 A2 G2 | F6 F2 | B3 A G2 F2 |[M:4/4] E8 | %8
w: rai en|a- ge flo- ris-|sant,|Je ser- vi-|rai d'a-|mour le roi puis-|sant,|
w: veux ser-|vir et hon- or-|er,|Quand par é-|crits veux|son nom dé- co-|rer,|
 F4 F2 G2 | (AGFE F2) G2 | G2 F2 F2 E2 | F8 | c4 c2 B2 | A6 A2 | G2 c2 c2 =B2 | c8 | A4 A2 G2 | %17
w: En fais, en|dits, * * * * en|chan- sons et ac-|cords.|Par plu- sieurs|jours m'a|te- nu lan- guis-|sant,|Et puis a-|
w: Quand je la|vois * * * * et|vi- si- te sou-|vent,|Les en- vi-|eux n'en|font que mur- mur-|er.|Mais no- tre~a-|
 F6 F2 | B3 A G2 F2 | E8 | F4 F2 G2 | (AGFE F2) G2 | G2 F2 F2 E2 | F8 | F2 FG A2 A2 | F2 FG A2 A2 | %26
w: pres m'a|fait re- jou- is-|sant,|Car j'ai l'a-|mour * * * * de|la belle au gent|corps.|Son al- li- an- ce,|C'est ma fi- an- ce,|
w: mour n'en|sau- rait moins dur-|er:|Au- tant ou|plus * * * * en|em- por- te le|vent.|Maul- gré en- vi- e|Tou- te ma vi- e|
 c2 cB A4 | c2 cB A4 | F2 FG A2 A2 | F2 FG A2 A2 |: c2 cB A4 | c2 cB A2 G2 | (GF F4) E2 | F6 z2 :| %34
w: Son coeur est mien,|Le mien est sien,|Fi de tri- stes- se,|Vi- ve li- es- se,|Puis qu'en a- mours,|puis qu'en a- mours a|tant * * de|bien,|
w: Je l'ai- me- rai,|Et chan- te- rai:|C'est la pre- miè- re,|C'est la der- niè- re,|Que j'ai ser- vie,|que j'ai ser- vie, et|ser\- * * vi-|rai,|
V:2
 F4 F2 D2 | F6 F2 | E2 G2 G2 G2 | E8 | F4 F2 D2 | D6 D2 | F3 E D2 D2 |[M:4/4] C8 | C4 D2 E2 | %9
w: Tant que viv-|rai en|a- ge flo- ris-|sant,|Je ser- vi-|rai d'a-|mour le roi puis-|sant,|En fais, en|
w: Quand je la|veux ser-|vir et hon- or-|er,|Quand par é-|crits veux|son nom dé- cor-|er,|Quand je la|
 F4 C2 D2- | D2 B,2 C2 C2 | C8 | F4 F2 D2 | F6 F2 | E2 G2 G2 G2 | E8 | F4 F2 D2 | D6 D2 | %18
w: dits, en chan\-|* sons et ac-|cords.|Par plu- sieurs|jours m'a|te- nu lan- guis-|sant,|Et puis a-|pres m'a|
w: vois et vi\-|* si- te sou-|vent,|Les en- vi-|eux n'en|font que mur- mur-|er.|Mais no- tre~a-|mour n'en|
 F3 E D2 D2 | C8 | C4 D2 E2 | F4 C2 D2- | D2 B,2 C2 C2 | C8 | D2 DD E2 F2 | z6 C2- | CD E2 C4 | %27
w: fait re- jou- is-|sant,|Car j'ai l'a-|mour de la|* belle au gent|corps.|Son al- li- an- ce,|Son|* coeur est mien,|
w: sau- rait moins dur-|er:|Au- tant ou|plus en em-|* por- te le|vent.|Maul- gré en- vi- e|Je|* l'ai- me- rai,|
 z8 | D2 DD E2 F2 | z8 |: F2 FD F4 | F2 FD F2 E2 | (D2 B,2) C4 | A,6 z2 :| %34
w: |Fi de tri- stes- se,||Puis qu'en a- mours,|Puis qu'en a- mours a|tant * de|bien,|
w: |C'est la pre- miè- re,||Que j'ai ser- vie,|que j'ai ser- vie, et|ser\- * vi-|rai.|
V:3
 F4 A2 B2 | c6 d2 | e2 c2 d2 d2 | c8 | c4 c2 B2 | A6 A2 | d3 c B2 A2 |[M:4/4][K:treble-8] G8 | %8
w: Tant que viv-|rai en|a- ge flo- ris-|sant,|Je ser- vi-|rai d'a-|mour le roi puis-|sant,|
w: Quand je la|veux ser-|vir et hon- or-|er,|Quand par é-|crits veux|son nom dé- cor-|er,|
 A4 A2 B2 | (cBAG A2) B2 | A2 F2 G2 G2 | F8 | F4 A2 B2 | c6 d2 | e2 c2 d2 d2 | c8 | c4 c2 B2 | %17
w: En fais, en|dits, * * * * en|chan- sons et ac-|cords.|Par plu- sieurs|jours m'a|te- nu lan- guis-|sant,|Et puis a-|
w: Quand je la|vois * * * * et|vi- si- te sou-|vent,|Les en- vi-|eux n'en|font que mur- mur-|er.|Mais no- tre~a-|
 A6 A2 | d3 c B2 A2 | G8 | A4 A2 B2 | (cBAG A2) B2 | A2 F2 G2 G2 | F8 | z8 | d2 dd e2 f2 | z6 c2- | %27
w: pres m'a|fait re- jou- is-|sant,|Car j'ai l'a-|mour * * * * de|la belle au gent|corps.||C'est ma fi- an- ce,|Le|
w: mour n'en|sau- rait moins dur-|er:|Au- tant ou|plus * * * * en|em- por- te le|vent.||Tou- te ma vi- e|Et|
 cd e2 c4 | z8 | d2 dd e2 f2 |: A2 AB c4 | A2 AB c2 c2 | (A2 F2) G4 | F6 z2 :| %34
w: * mien est sien,||Vi- ve li- es- se,|Puis qu'en a- mours,|Puis qu'en a- mours a|tant * de|bien,|
w: * chan- te- rai:||C'est la der- niè- re,|Que j'ai ser- vie,|que j'ai ser- vie, et|ser\- * vi-|rai.|
V:4
 F,4 F,2 G,2 | F,6 F,2 | C,2 C,2 G,2 G,2 | C,8 | F,4 F,2 G,2 | D,6 D,2 | B,,3 B,, B,,2 B,,2 | %7
w: Tant que viv-|rai en|a- ge flo- ris-|sant,|Je ser- vi-|rai d'a-|mour le roi puis-|
w: Quand je la|veux ser-|vir et hon- or-|er,|Quand par é-|crits veux|son nom dé- cor-|
[M:4/4] C,8 | F,4 D,2 G,2 | F,6 B,,2 | D,2 D,2 C,2 C,2 | F,8 | F,4 F,2 G,2 | F,6 F,2 | %14
w: sant,|En fais, en|dits, en|chan- sons et ac-|cords.|Par plu- sieurs|jours m'a|
w: er,|Quand je la|vois et|vi- si- te sou-|vent,|Les en- vi-|eux n'en|
 C,2 C,2 G,2 G,2 | C,8 | F,4 F,2 G,2 | D,6 D,2 | B,,3 B,, B,,2 B,,2 | C,8 | F,4 D,2 G,2 | %21
w: te- nu lan- guis-|sant,|Et puis a-|pres m'a|fait re- jou- is-|sant,|Car j'ai l'a-|
w: font que mur- mur-|er.|Mais not re~a-|mour n'en|sau- rait moins dur-|er:|Au- tant ou|
 F,6 B,,2 | D,2 D,2 C,2 C,2 | F,8 | B,2 B,B, A,2 F,2 | B,2 B,B, A,2 F,2 | F,2 C,C, F,4 | %27
w: mour de|la belle au gent|corps.|Son al- li- an- ce,|C'est ma fi- an- ce,|Son coeur est mien,|
w: plus en|em- por- te le|vent.|Maul- gré en- vi- e|Tou- te ma vi- e|Je l'ai- me- rai,|
 F,2 C,C, F,4 | B,2 B,B, A,2 F,2 | B,2 B,B, A,2 F,2 |: F,2 F,G, F,4 | F,2 F,G, F,2 C,2 | D,4 C,4 | %33
w: Le mien est sien,|Fi de tri- stes- se,|Vi- ve li- es- se,|Puis qu'en a- mours,|Puis qu'en a- mours a|tant de|
w: Et chan- te- rai:|C'est la pre- miè- re,|C'est la der- niè- re,|Que j'ai ser- vie,|que j'ai ser- vie, et|ser- vi-|
 F,6 z2 :| %34
w: bien,|
w: rai.|

